wagtail_fa_svg/templates/wagtail-fa-svg/v6/solid/laptop-file.svg

<svg id="icon-laptop-file" viewbox="0 0 640 512" xmlns="http://www.w3.org/2000/svg"><!--! Font Awesome Free 6.6.0 by @fontawesome - https://fontawesome.com License - https://fontawesome.com/license/free (Icons: CC BY 4.0, Fonts: SIL OFL 1.1, Code: MIT License) Copyright 2024 Fonticons, Inc. --><path d="M128 0C92.7 0 64 28.7 64 64l0 224-44.8 0C8.6 288 0 296.6 0 307.2C0 349.6 34.4 384 76.8 384L320 384l0-96-192 0 0-224 320 0 0 32 64 0 0-32c0-35.3-28.7-64-64-64L128 0zM512 128l-112 0c-26.5 0-48 21.5-48 48l0 288c0 26.5 21.5 48 48 48l192 0c26.5 0 48-21.5 48-48l0-208-96 0c-17.7 0-32-14.3-32-32l0-96zm32 0l0 96 96 0-96-96z"></path></svg>

<svg id="icon-laptop-file" viewbox="0 0 640 512" xmlns="http://www.w3.org/2000/svg"><!--! Font Awesome Free 6.5.2 by @fontawesome - https://fontawesome.com License - https://fontawesome.com/license/free (Icons: CC BY 4.0, Fonts: SIL OFL 1.1, Code: MIT License) Copyright 2024 Fonticons, Inc. --><path d="M128 0C92.7 0 64 28.7 64 64V288H19.2C8.6 288 0 296.6 0 307.2C0 349.6 34.4 384 76.8 384H320V288H128V64H448V96h64V64c0-35.3-28.7-64-64-64H128zM512 128H400c-26.5 0-48 21.5-48 48V464c0 26.5 21.5 48 48 48H592c26.5 0 48-21.5 48-48V256H544c-17.7 0-32-14.3-32-32V128zm32 0v96h96l-96-96z"></path></svg>
